packages/core/src/svgs/map.svg

<svg width="24" height="24" viewBox="0 0 24 24" fill="none" xmlns="http://www.w3.org/2000/svg">
<g clip-path="url(#clip0_31_13504)">
<path d="M0 0H24V24H0V0Z" fill="url(#paint0_linear_31_13504)"/>
<path d="M10.7007 6.11121C11.278 5.11007 12.7223 5.11007 13.2995 6.11121L18.2401 14.6792C18.817 15.6791 18.0953 16.9284 16.9407 16.9284H7.05997C5.90539 16.9284 5.18368 15.6791 5.76054 14.6792L10.7007 6.11121Z" stroke="#E1CA7D"/>
<path d="M11.2203 7.50522C11.885 6.56022 13.3241 6.69007 13.8088 7.73879L16.8791 14.3791C17.3634 15.4265 16.5328 16.6059 15.383 16.5022L8.10413 15.8461C6.95428 15.7424 6.34785 14.4335 7.0117 13.4889L11.2203 7.50522Z" stroke="#E1CA7D"/>
<path d="M11.9144 8.27856C12.4501 7.65027 13.4645 7.83841 13.7397 8.61627L15.8474 14.5786C16.1225 15.3556 15.4531 16.139 14.6422 15.989L8.43052 14.8383C7.61966 14.6883 7.27552 13.7171 7.81038 13.0897L11.9144 8.27856Z" stroke="#E1CA7D"/>
<path d="M12.4805 9.06083C12.5617 8.98238 12.6621 8.92671 12.7717 8.89942C12.8813 8.87214 12.9961 8.87419 13.1047 8.90539C13.2132 8.93658 13.3116 8.99581 13.3899 9.07712C13.4683 9.15843 13.5239 9.25894 13.551 9.36854L14.8753 14.7098C14.9025 14.8193 14.9004 14.934 14.8692 15.0425C14.838 15.1509 14.7788 15.2492 14.6976 15.3275C14.6164 15.4058 14.516 15.4613 14.4065 15.4885C14.297 15.5158 14.1823 15.5137 14.0739 15.4825L8.79004 13.9628C8.6817 13.9316 8.58347 13.8724 8.50522 13.7913C8.42696 13.7101 8.37144 13.6097 8.34422 13.5003C8.31699 13.3909 8.31902 13.2763 8.35011 13.1679C8.3812 13.0595 8.44025 12.9612 8.52133 12.8828L12.48 9.0604L12.4805 9.06083Z" stroke="#E1CA7D"/>
<path d="M12.7358 10.1279C12.7971 10.0842 12.8689 10.0575 12.9438 10.0503C13.0187 10.0431 13.0942 10.0558 13.1627 10.0871C13.2312 10.1184 13.2902 10.1671 13.3338 10.2285C13.3775 10.2898 13.4042 10.3616 13.4113 10.4365L13.791 14.4226C13.7982 14.4975 13.7855 14.573 13.7542 14.6415C13.723 14.7099 13.6743 14.769 13.613 14.8126C13.5517 14.8563 13.48 14.883 13.4051 14.8902C13.3302 14.8973 13.2547 14.8846 13.1863 14.8534L9.54684 13.1922C9.47848 13.161 9.41954 13.1123 9.37593 13.0511C9.33232 12.9899 9.30557 12.9183 9.29836 12.8435C9.29116 12.7687 9.30375 12.6933 9.33487 12.6249C9.366 12.5565 9.41456 12.4975 9.47569 12.4538L12.7358 10.1279Z" stroke="#E1CA7D"/>
</g>
<defs>
<linearGradient id="paint0_linear_31_13504" x1="4.46486" y1="4.16229" x2="29.2059" y2="32.5787" gradientUnits="userSpaceOnUse">
<stop stop-color="#1A1E21"/>
<stop offset="1" stop-color="#06060A"/>
</linearGradient>
<clipPath id="clip0_31_13504">
<rect width="24" height="24" fill="white"/>
</clipPath>
</defs>
</svg>

<svg xmlns="http://www.w3.org/2000/svg" width="24" height="24" fill="none" viewBox="0 0 24 24"><g clip-path="url(#a)"><path fill="url(#b)" d="M0 0h24v24H0z"/><path stroke="#E1CA7D" d="M10.7 6.111a1.5 1.5 0 0 1 2.6 0l4.94 8.568a1.5 1.5 0 0 1-1.3 2.25H7.06a1.5 1.5 0 0 1-1.3-2.25z"/><path stroke="#E1CA7D" d="M11.22 7.505a1.5 1.5 0 0 1 2.589.234l3.07 6.64a1.5 1.5 0 0 1-1.496 2.123l-7.279-.656a1.5 1.5 0 0 1-1.092-2.357z"/><path stroke="#E1CA7D" d="M11.914 8.279a1.071 1.071 0 0 1 1.826.337l2.107 5.963a1.071 1.071 0 0 1-1.205 1.41l-6.211-1.15a1.071 1.071 0 0 1-.62-1.75z"/><path stroke="#E1CA7D" d="M12.48 9.06a.642.642 0 0 1 1.071.309l1.324 5.34a.643.643 0 0 1-.801.774l-5.284-1.52a.643.643 0 0 1-.269-1.08L12.48 9.06Z"/><path stroke="#E1CA7D" d="M12.736 10.128a.43.43 0 0 1 .675.309l.38 3.986a.428.428 0 0 1-.605.43l-3.64-1.66a.428.428 0 0 1-.07-.74z"/></g><defs><linearGradient id="b" x1="4.465" x2="29.206" y1="4.162" y2="32.579" gradientUnits="userSpaceOnUse"><stop stop-color="#1A1E21"/><stop offset="1" stop-color="#06060A"/></linearGradient><clipPath id="a"><path fill="#fff" d="M0 0h24v24H0z"/></clipPath></defs></svg>
